!!! OTL: Berkowitz237
!!! Chapter: 1
!!! Section: II
!!! Page: 54
!!! Mode: 
!!! Encoder: DJB
**kern
*staff1
*I"Piano
=1-
*clefG2
*k[f#]
*e:
*M3/4
4e/
4g/
4b\
=2
4a/
4cc\
4ee\
=3
8dd#\L
8ee\J
4ff#\
4b\
=4
2ee\
8e/L
8f#/J
=5
4g/
4b\
4dd\
=6
4ee\
4cc\
4a/
=7
8f#/L
8g/J
8a/L
8b/J
8b/L
8a/J
=8
2g/
4dd\
=9
4d/
4f#/
4a/
=10
4g/
4b\
4dd\
=11
!!linebreak:original
8ee\L
8dd\J
4cc\
4b\
=12
2a#/
4b\
=13
4cc\
4a/
4f#/
=14
4b\
8a/L
8g/J
8f#/L
8e/J
=15
4.f#/
8a/
8g/L
8f#/J
=16
2.e/
==
*-
